X: 2237
T: BRIAN O'LINN
Q: "Irish Jig."
R: Slip-Jig.
%R: slip-jig
B: James Kerr "Merry Melodies" v.2 p.26 #237
Z: 2016 John Chambers <jc:trillian.mit.edu>
M: 9/8
L: 1/8
K: D
|:\
vd3 faf gfe | ud3 fdf ecA |\
d3 fdf efg | uagf efd cBA ::\
vfge fdB B3 | ufge fdB cde |\
vfge fdB Bcd | e3 efd cBA :|

%%sep 1 1 500
%%sep 1 1 500

